X:1
T:Woodward’s Litany, 77.77
T:Woodward’s Litany, 77.77
T:William W. Woodward, 1863
T:Public Domain Courtesy of the Cyber Hymnal™
C:William W. Woodward, 1863
Z:Public Domain
Z:Courtesy of the Cyber Hymnal™
%%score ( 1 2 ) ( 3 4 )
L:1/8
Q:1/4=108
M:4/4
K:Ab
V:1 treble 
V:2 treble 
V:3 bass 
V:4 bass 
V:1
 [CA]2 ([DB][Ec]) [Fd]2 [Ec]2 | [Dc]2 [DB]2 [CA]4 | [CA]2 ([DB][Ec]) [Fd]2 [Ec]2 | %3
 [=Dc]2 [DB]2 E4 | A3 z A [_Ge]2 [Fd]2 | [_Gd]2 [Gc]2 F4 | E3 E [Gd]2 [Ac]2 | [Gc]2 [GB]2 A4 |] %8
V:2
 x8 | x8 | x8 | x4 E4 | E2 E2 x5 | x4 F4 | E3 E x4 | x4 A4 |] %8
V:3
 [A,,A,]2 [A,,A,]2 [D,A,]2 [A,,A,]2 | [E,G,]2 [E,G,]2 [A,,A,]4 | %2
 [A,,A,]2 [A,,A,]2 [D,A,]2 [A,,A,]2 | [B,,A,]2 [B,,A,]2 G,4 | [C,A,]2 [C,A,]2 [C,=A,]2 [D,B,]2 x | %5
 [E,=A,]2 [E,A,]2 [D,B,]4 | [E,G,]2 [E,G,]2 [E,B,]2 [E,A,]2 | [E,D]2 [E,D]2 [A,,C]4 |] %8
V:4
 x8 | x8 | x8 | x4 (E,3 D,) | x9 | x8 | x8 | x8 |] %8

